packages/core/src/svgs/tokens/branded/VCORE.svg

<svg width="24" height="24" viewBox="0 0 24 24" fill="none" xmlns="http://www.w3.org/2000/svg">
<path fill-rule="evenodd" clip-rule="evenodd" d="M21.9961 12.0037C21.9961 17.5245 17.5207 21.9999 11.9999 21.9999C6.47913 21.9999 2.00366 17.5245 2.00366 12.0037C2.00366 6.48291 6.47913 2.00745 11.9999 2.00745C17.5207 2.00745 21.9961 6.48291 21.9961 12.0037ZM13.1416 6.12355H15.4937L13.8354 10.2397L19.057 8.57556V10.8217L15.3525 12.0037L19.057 13.1797V15.4317L13.953 13.7971L15.5995 17.8838H13.2475L12.0009 14.7968L10.7543 17.8838H8.40221L10.0957 13.6854L4.94468 15.3319V13.0856L8.33753 11.9978L4.94468 10.9158V8.66964L10.2133 10.3573L8.50805 6.12355H10.8602L12.0009 8.95188L13.1416 6.12355Z" fill="url(#paint0_linear_364_1954)"/>
<path d="M21.4495 15.2672C20.8354 17.0452 19.733 18.6144 18.2683 19.7949C17.2687 18.807 16.3456 16.502 17.4804 15.2083C18.5801 13.9559 20.4792 14.6673 21.4495 15.2672Z" fill="url(#paint1_linear_364_1954)"/>
<path d="M7.86737 21.1058C5.72424 20.1299 3.9925 18.4315 2.9751 16.3077C3.76303 16.0137 5.08018 15.9314 6.37969 17.1014C7.83797 18.4186 8.07318 20.165 7.86737 21.1058Z" fill="#C49D41"/>
<path d="M4.97974 4.88835C5.80296 5.25292 6.87903 5.53517 7.6846 5.12943L8.38434 4.77074C9.1664 4.35913 9.34869 4.25918 10.0132 4.41794C10.3248 4.49439 10.5776 4.69431 10.8364 4.89423C11.2598 5.2294 11.7008 5.57633 12.4592 5.4058C13.553 5.15884 15.4699 3.90636 15.4699 2.6245C13.6879 1.96256 11.7539 1.82341 9.89544 2.22343C8.03708 2.62344 6.33159 3.54598 4.97974 4.88247V4.88835Z" fill="#B38B3E"/>
<defs>
<linearGradient id="paint0_linear_364_1954" x1="2.62108" y1="12.5211" x2="20.9201" y2="9.67511" gradientUnits="userSpaceOnUse">
<stop stop-color="#D3A955"/>
<stop offset="0.24" stop-color="#CEA651"/>
<stop offset="0.46" stop-color="#FFD57E"/>
<stop offset="0.75" stop-color="#FBD072"/>
<stop offset="1" stop-color="#FCC766"/>
</linearGradient>
<linearGradient id="paint1_linear_364_1954" x1="16.9571" y1="15.1613" x2="21.1378" y2="18.3425" gradientUnits="userSpaceOnUse">
<stop stop-color="#BC8E3A"/>
<stop offset="1" stop-color="#79622D"/>
</linearGradient>
</defs>
</svg>

<svg xmlns="http://www.w3.org/2000/svg" width="24" height="24" fill="none" viewBox="0 0 24 24">
    <path fill="url(#VCORE__a)" fill-rule="evenodd" d="M21.996 12.004C21.996 17.524 17.521 22 12 22c-5.52 0-9.996-4.475-9.996-9.996S6.479 2.007 12 2.007c5.52 0 9.996 4.476 9.996 9.997m-8.854-5.88h2.352l-1.659 4.116 5.222-1.664v2.246l-3.704 1.182 3.704 1.176v2.252l-5.104-1.635 1.647 4.087h-2.352L12 14.797l-1.247 3.087H8.402l1.694-4.199-5.151 1.647v-2.246l3.393-1.088-3.393-1.082V8.67l5.268 1.687-1.705-4.233h2.352L12 8.952z" clip-rule="evenodd"/>
    <path fill="url(#VCORE__b)" d="M21.45 15.267a10 10 0 0 1-3.182 4.528c-1-.988-1.922-3.293-.788-4.587 1.1-1.252 3-.54 3.97.06"/>
    <path fill="#C49D41" d="M7.867 21.106a10.04 10.04 0 0 1-4.892-4.798c.788-.294 2.105-.377 3.405.793 1.458 1.318 1.693 3.064 1.487 4.005"/>
    <path fill="#B38B3E" d="M4.98 4.888c.823.365 1.899.647 2.705.241l.7-.358c.781-.412.964-.512 1.628-.353.312.076.565.276.823.476.424.335.865.682 1.623.512 1.094-.247 3.01-1.5 3.01-2.781A9.98 9.98 0 0 0 4.98 4.882z"/>
    <defs>
        <linearGradient id="VCORE__a" x1="2.621" x2="20.92" y1="12.521" y2="9.675" gradientUnits="userSpaceOnUse">
            <stop stop-color="#D3A955"/>
            <stop offset=".24" stop-color="#CEA651"/>
            <stop offset=".46" stop-color="#FFD57E"/>
            <stop offset=".75" stop-color="#FBD072"/>
            <stop offset="1" stop-color="#FCC766"/>
        </linearGradient>
        <linearGradient id="VCORE__b" x1="16.957" x2="21.138" y1="15.161" y2="18.343" gradientUnits="userSpaceOnUse">
            <stop stop-color="#BC8E3A"/>
            <stop offset="1" stop-color="#79622D"/>
        </linearGradient>
    </defs>
</svg>
